source/images/icons/icon-utility/social-twitter.svg

<?xml version="1.0" encoding="UTF-8"?>
<svg width="24px" height="24px" viewBox="0 0 24 24" version="1.1" xmlns="http://www.w3.org/2000/svg" xmlns:xlink="http://www.w3.org/1999/xlink">
    <!-- Generator: Sketch 55.2 (78181) - https://sketchapp.com -->
    <title>Icons/24px/Social-Twitter</title>
    <desc>Created with Sketch.</desc>
    <defs>
        <path d="M19.96472,8.50773214 C19.96472,8.33283131 19.96112,8.15871797 19.95296,7.98554962 C20.75408,7.4154879 21.45056,6.70415104 22,5.89422083 C21.26472,6.21567296 20.47352,6.43238933 19.64352,6.5300377 C20.49072,6.03014106 21.14112,5.23887429 21.44784,4.29578005 C20.65488,4.75842857 19.77704,5.09492169 18.8424,5.27612241 C18.09368,4.49107679 17.02728,4 15.84728,4 C13.58104,4 11.74336,5.80893601 11.74336,8.03886248 C11.74336,8.35590467 11.77944,8.66404827 11.84976,8.95982833 C8.4396,8.7910699 5.4156,7.18373052 3.392,4.73976513 C3.03928,5.33652266 2.83632,6.03014106 2.83632,6.76982744 C2.83632,8.17123901 3.56072,9.40830208 4.66224,10.1320025 C3.98928,10.1116066 3.35688,9.92953962 2.80384,9.62667218 C2.80288,9.6435244 2.80288,9.66045536 2.80288,9.67817382 C2.80288,11.6346061 4.21752,13.2676963 6.09488,13.6380514 C5.75032,13.7303448 5.3876,13.780114 5.0132,13.780114 C4.74888,13.780114 4.49176,13.7543632 4.24184,13.7072715 C4.76424,15.3120121 6.27896,16.4797764 8.07512,16.5126933 C6.67048,17.5960389 4.90136,18.2416206 2.97888,18.2416206 C2.64776,18.2416206 2.3212,18.223036 2,18.1857091 C3.81608,19.3312662 5.97224,20 8.28984,20 C15.83736,20 19.96472,13.8449242 19.96472,8.50773214 Z" id="path-1"></path>
    </defs>
    <g id="Icons/24px/Social-Twitter" stroke="none" stroke-width="1" fill="none" fill-rule="evenodd">
        <mask id="mask-2" fill="white">
            <use xlink:href="#path-1"></use>
        </mask>
        <use id="Icon" fill="#ADB5BD" xlink:href="#path-1"></use>
    </g>
</svg>

<svg width="24" height="24" xmlns:xlink="http://www.w3.org/1999/xlink">
    <title>
        Icons/24px/Social-Twitter
    </title>
    <defs>
        <path d="M19.965 8.508c0-.175-.004-.35-.012-.522A8.277 8.277 0 0 0 22 5.894a8.292 8.292 0 0 1-2.356.636 4.064 4.064 0 0 0 1.804-2.234c-.793.462-1.671.799-2.606.98A4.13 4.13 0 0 0 15.847 4c-2.266 0-4.104 1.809-4.104 4.039 0 .317.036.625.107.92a11.712 11.712 0 0 1-8.458-4.22 3.977 3.977 0 0 0-.556 2.03 4.02 4.02 0 0 0 1.826 3.363 4.122 4.122 0 0 1-1.858-.505l-.001.051c0 1.957 1.415 3.59 3.292 3.96a4.176 4.176 0 0 1-1.853.07c.522 1.604 2.037 2.772 3.833 2.805a8.317 8.317 0 0 1-5.096 1.729c-.331 0-.658-.019-.979-.056A11.751 11.751 0 0 0 8.29 20c7.547 0 11.675-6.155 11.675-11.492z" id="a"/>
    </defs>
    <use fill="#ADB5BD" xlink:href="#a" fill-rule="evenodd"/>
</svg>
